svg/emoji_u1f50a.svg

<svg xmlns="http://www.w3.org/2000/svg" xmlns:xlink="http://www.w3.org/1999/xlink" width="128" height="128"><defs><linearGradient xlink:href="#a" id="c" x1="47.25" y1="113.278" x2="39.126" y2="57.345" gradientUnits="userSpaceOnUse"/><linearGradient id="a"><stop offset="0"/><stop offset="1" stop-opacity="0"/></linearGradient><linearGradient xlink:href="#b" id="d" x1="43.521" y1="12.927" x2="58.099" y2="91.858" gradientUnits="userSpaceOnUse"/><linearGradient id="b"><stop offset="0" stop-color="#fff"/><stop offset="1" stop-color="#fff" stop-opacity="0"/></linearGradient></defs><path fill="#0083bd" stroke-width="3.6" stroke-linecap="round" stroke-linejoin="round" paint-order="stroke fill markers" d="M14.425 46.373H58.9v35.254H14.425z"/><path d="M82.356 10.848A15.593 53.153 0 0 0 66.765 64a15.593 53.153 0 0 0 15.591 53.152A15.593 53.153 0 0 0 97.95 64a15.593 53.153 0 0 0-15.594-53.152z" fill="#00364e" stroke-width="3.6" stroke-linecap="round" stroke-linejoin="round" paint-order="stroke fill markers"/><path d="M70.763 48.5A7.896 15.5 0 0 0 62.867 64a7.896 15.5 0 0 0 7.896 15.5A7.896 15.5 0 0 0 78.659 64a7.896 15.5 0 0 0-7.896-15.5z" fill="#a5c0cb" stroke-width="1.383" stroke-linecap="round" stroke-linejoin="round" paint-order="stroke fill markers"/><path d="M81.3 10.969l-.113.078a15.593 53.153 0 0 1 .109-.018zm-3.947 2.746L30.425 46.373v35.254l46.959 32.68A15.593 53.153 0 0 1 66.764 64a15.593 53.153 0 0 1 10.589-50.285zm3.935 103.308l.012.008v-.006a15.593 53.153 0 0 1-.012-.002z" fill="#0083bd" stroke-width="3.6" stroke-linecap="round" stroke-linejoin="round" paint-order="stroke fill markers"/><path d="M21.424 81.627l46.959 32.68a15.593 53.153 0 0 1-8.235-22.17l-.021-.004c-17.075-2.1-38.703-10.506-38.703-10.506zm50.863 35.396l.012.008v-.006a15.593 53.153 0 0 1-.012-.002z" opacity=".151" fill="url(#c)" transform="translate(9.001)"/><path d="M72.299 10.969l-.113.078a15.593 53.153 0 0 1 .109-.018zm-3.947 2.746L21.424 46.373s17.494-1.35 38.086-6.818l.006-.002a15.593 53.153 0 0 1 8.836-25.838z" opacity=".151" fill="url(#d)" transform="translate(9.001)"/><path d="M95.67 84.864A11.626 27.236 0 0 0 99.823 64a11.626 27.236 0 0 0-4.153-20.864M114.19 101.832A21.08 49.386 0 0 0 121.72 64a21.08 49.386 0 0 0-7.53-37.832M104.202 93.167A16.252 38.074 0 0 0 110.008 64a16.252 38.074 0 0 0-5.806-29.167" fill="none" stroke="#00caf3" stroke-width="6" stroke-linecap="round" stroke-linejoin="round" paint-order="stroke fill markers"/></svg>

<?xml version="1.0" encoding="UTF-8" standalone="no"?>
<!DOCTYPE svg PUBLIC "-//W3C//DTD SVG 1.1//EN" "http://www.w3.org/Graphics/SVG/1.1/DTD/svg11.dtd">
<svg width="100%" height="100%" viewBox="0 0 128 128" version="1.1" xmlns="http://www.w3.org/2000/svg" xmlns:xlink="http://www.w3.org/1999/xlink" xml:space="preserve" xmlns:serif="http://www.serif.com/" style="fill-rule:evenodd;clip-rule:evenodd;stroke-linecap:round;stroke-linejoin:round;">
    <path d="M14.425,50.181C14.425,49.171 14.826,48.202 15.54,47.488C16.254,46.774 17.223,46.373 18.233,46.373C29.001,46.373 58.9,46.373 58.9,46.373L58.9,81.627L18.233,81.627C17.223,81.627 16.254,81.226 15.54,80.512C14.826,79.798 14.425,78.829 14.425,77.819C14.425,71.041 14.425,56.959 14.425,50.181Z" style="fill:rgb(0,131,189);fill-rule:nonzero;"/>
    <path d="M82.356,10.848C73.803,10.852 66.765,34.844 66.765,64C66.765,93.156 73.803,117.148 82.356,117.152C82.356,117.152 82.357,117.152 82.357,117.152C90.911,117.152 97.95,93.158 97.95,64C97.95,34.842 90.911,10.848 82.357,10.848C82.357,10.848 82.356,10.848 82.356,10.848Z" style="fill:rgb(0,54,78);fill-rule:nonzero;"/>
    <path d="M70.763,48.5C66.431,48.5 62.867,55.497 62.867,64C62.867,72.503 66.431,79.5 70.763,79.5C75.095,79.5 78.659,72.503 78.659,64C78.659,55.497 75.095,48.5 70.763,48.5Z" style="fill:rgb(165,192,203);fill-rule:nonzero;"/>
    <path d="M81.3,10.969L81.187,11.047C81.223,11.041 81.26,11.035 81.296,11.029L81.3,10.969ZM77.353,13.715L30.425,46.373L30.425,81.627L77.384,114.307C71.062,107.055 66.773,86.739 66.764,64C66.771,41.296 71.045,21.001 77.353,13.715ZM81.288,117.023L81.3,117.031L81.3,117.025C81.296,117.024 81.292,117.024 81.288,117.023Z" style="fill:rgb(0,131,189);fill-rule:nonzero;"/>
    <g transform="matrix(1,0,0,1,9.001,0)">
        <path d="M21.424,81.627L68.383,114.307C64.97,110.383 62.059,102.546 60.148,92.137L60.127,92.133C43.052,90.033 21.424,81.627 21.424,81.627ZM72.287,117.023L72.299,117.031L72.299,117.025C72.295,117.024 72.291,117.024 72.287,117.023Z" style="fill:url(#_Linear1);fill-rule:nonzero;"/>
    </g>
    <g transform="matrix(1,0,0,1,9.001,0)">
        <path d="M72.299,10.969L72.186,11.047C72.222,11.041 72.259,11.035 72.295,11.029L72.299,10.969ZM68.352,13.715L21.424,46.373C21.424,46.373 38.918,45.023 59.51,39.555L59.516,39.553C61.372,27.379 64.54,18.115 68.352,13.715Z" style="fill:url(#_Linear2);fill-rule:nonzero;"/>
    </g>
    <path d="M95.67,84.864C98.301,79.692 99.823,72.046 99.823,64C99.823,55.954 98.301,48.308 95.67,43.136M114.19,101.832C118.96,92.454 121.72,78.59 121.72,64C121.72,49.41 118.96,35.546 114.19,26.168M104.202,93.167C107.88,85.937 110.008,75.248 110.008,64C110.008,52.752 107.88,42.063 104.202,34.833" style="fill:none;fill-rule:nonzero;stroke:rgb(0,202,243);stroke-width:6px;"/>
    <defs>
        <linearGradient id="_Linear1" x1="0" y1="0" x2="1" y2="0" gradientUnits="userSpaceOnUse" gradientTransform="matrix(-8.124,-55.933,55.933,-8.124,47.25,113.278)"><stop offset="0" style="stop-color:black;stop-opacity:0.15"/><stop offset="1" style="stop-color:black;stop-opacity:0"/></linearGradient>
        <linearGradient id="_Linear2" x1="0" y1="0" x2="1" y2="0" gradientUnits="userSpaceOnUse" gradientTransform="matrix(14.578,78.931,-78.931,14.578,43.521,12.927)"><stop offset="0" style="stop-color:white;stop-opacity:0.15"/><stop offset="1" style="stop-color:white;stop-opacity:0"/></linearGradient>
    </defs>
</svg>
